src/status/24/system-devices-panel-information.svg

<svg viewBox="0 0 24 24" xmlns="http://www.w3.org/2000/svg">
 <g transform="translate(1 1)" fill="#88c0d0">
  <path d="m10 3v8h2v-8z"/>
  <path d="m14 8v2h5.3438c0.36933 0 0.65625-0.223 0.65625-0.5v-1c0-0.277-0.28692-0.5-0.65625-0.5h-5.3438zm0 4v2h5.3438c0.36933 0 0.65625-0.223 0.65625-0.5v-1c0-0.277-0.28692-0.5-0.65625-0.5h-5.3438zm0 4v2h5.3438c0.36933 0 0.65625-0.223 0.65625-0.5v-1c0-0.277-0.28692-0.5-0.65625-0.5h-5.3438z"/>
  <path d="m8 3.594c-2.934 1.186-5 4.048-5 7.406 0 4.418 3.582 8 8 8 0.334 0 0.676-0.023 1-0.063v-2.031c-0.325 0.055-0.66 0.094-1 0.094-3.314 0-6-2.686-6-6 0-2.221 1.207-4.15 3-5.188v-2.219zm6 0v2.219c0.099 0.057 0.186 0.125 0.281 0.188h2.938c-0.845-1.057-1.941-1.89-3.219-2.406z" fill-rule="evenodd"/>
 </g>
</svg>

<svg xmlns="http://www.w3.org/2000/svg" viewBox="0 0 24 24">
 <g transform="translate(1,1.0000001)" style="fill:#88c0d0;fill-opacity:1">
  <path d="m 10 3 0 8 2 0 0 -8 z"/>
  <path d="m 14,8 0,2 5.34375,0 C 19.713081,10 20,9.777 20,9.5 l 0,-1 C 20,8.223 19.713081,8 19.34375,8 L 14,8 z m 0,4 0,2 5.34375,0 C 19.713081,14 20,13.777 20,13.5 l 0,-1 C 20,12.223 19.713081,12 19.34375,12 L 14,12 z m 0,4 0,2 5.34375,0 C 19.713081,18 20,17.777 20,17.5 l 0,-1 C 20,16.223 19.713081,16 19.34375,16 L 14,16 z" style="color:#000"/>
  <path d="m 8 3.594 c -2.934 1.186 -5 4.048 -5 7.406 c 0 4.418 3.582 8 8 8 0.334 0 0.676 -0.023 1 -0.063 l 0 -2.031 c -0.325 0.055 -0.66 0.094 -1 0.094 -3.314 0 -6 -2.686 -6 -6 0 -2.221 1.207 -4.15 3 -5.188 l 0 -2.219 z m 6 0 0 2.219 c 0.099 0.057 0.186 0.125 0.281 0.188 l 2.938 0 c -0.845 -1.057 -1.941 -1.89 -3.219 -2.406 z" style="fill-rule:evenodd"/>
 </g>
</svg>
